src/images/icons/modern-desc.svg

<svg width="102" height="104" viewBox="0 0 102 104" fill="none" xmlns="http://www.w3.org/2000/svg">
<g clip-path="url(#clip0_1_3429)">
<path d="M66.3201 27.812H43.1931C41.6876 27.812 40.4629 29.0367 40.4629 30.5422V40.1155L23.2816 47.3269C23.0871 47.4085 22.9548 47.5921 22.9399 47.8026C22.925 48.0132 23.0291 48.2142 23.2102 48.3228L25.4013 49.6342V63.6091C24.2808 63.8646 23.44 64.8674 23.44 66.0673V67.4143C23.44 67.7233 23.6907 67.9739 23.9996 67.9739H27.9232C28.2321 67.9739 28.4827 67.7233 28.4827 67.4143V66.0673C28.4827 64.869 27.6417 63.8675 26.5203 63.6104V50.304L28.2528 51.3409C28.1996 51.7404 28.2461 50.6446 28.228 57.8471C28.228 60.2147 34.2925 61.483 40.4629 61.5557V72.4617C40.4629 73.0251 40.6354 73.549 40.9303 73.9838C41.421 74.7097 42.2515 75.1879 43.1917 75.1879H66.3187C67.8227 75.1879 69.0463 73.964 69.0463 72.4603C69.0463 72.535 69.0433 70.1501 69.0463 30.5426C69.0463 29.0575 67.8184 27.812 66.3201 27.812ZM27.3636 66.0673V66.8548H24.5591V66.0673C24.5591 65.2921 25.1867 64.6612 25.9579 64.6612C26.7331 64.6612 27.3636 65.2921 27.3636 66.0673ZM66.3201 74.066H43.1931C42.6382 74.066 42.148 73.7851 41.8581 73.3587C41.6845 73.102 41.583 72.7927 41.583 72.4603V68.6798H67.9244V72.4617C67.9244 73.3381 67.1941 74.066 66.3201 74.066ZM67.9244 67.5608H41.5819V61.559C44.5947 61.5245 53.8241 60.861 53.8241 57.8471C53.8208 53.3225 53.8321 51.4877 53.8099 51.3324L58.8343 48.3228C59.0153 48.2142 59.1195 48.0132 59.1046 47.8026C59.0896 47.5921 58.9574 47.4085 58.7629 47.3269L41.5819 40.1153V35.4421H67.9244V67.5608ZM41.0224 54.1322C37.9188 54.1322 31.9431 54.533 29.3471 56.2282C29.3636 51.0432 29.1672 51.3809 29.8057 50.9412C31.4184 49.7537 36.0308 48.9246 41.0224 48.9246C43.1996 48.9246 52.705 49.5231 52.705 51.5357V56.229C50.0847 54.518 44.1393 54.1322 41.0224 54.1322ZM41.583 30.5426C41.583 29.6556 42.3047 28.934 43.1917 28.934H66.3187C67.2065 28.934 67.9244 29.6657 67.9244 30.5422V34.323H41.583V30.5426ZM41.0224 41.0941L57.3109 47.9308L53.2749 50.3461C51.1292 48.2182 44.0312 47.8055 41.0224 47.8055C38.0097 47.8055 30.9112 48.2194 28.7701 50.3467L24.7328 47.9308L41.0224 41.0941ZM29.3471 57.8471C29.3471 56.9415 33.357 55.2513 41.0224 55.2513C48.6926 55.2513 52.705 56.9415 52.705 57.8471C52.705 58.7534 48.6926 60.4436 41.0224 60.4436C33.357 60.4436 29.3471 58.7534 29.3471 57.8471Z" fill="#FF6B09"/>
<path d="M54.7548 69.5234C53.7345 69.5234 52.9043 70.3533 52.9043 71.3739C52.9043 72.3946 53.7345 73.2252 54.7548 73.2252C55.7755 73.2252 56.6057 72.3946 56.6057 71.3739C56.6057 70.3533 55.7755 69.5234 54.7548 69.5234ZM54.7548 72.1061C54.3516 72.1061 54.0233 71.7776 54.0233 71.3739C54.0233 70.9703 54.3516 70.6425 54.7548 70.6425C55.1584 70.6425 55.4866 70.9703 55.4866 71.3739C55.4866 71.7776 55.1584 72.1061 54.7548 72.1061Z" fill="#FF6B09"/>
<path d="M56.8896 31.0691H52.6211V32.1881H56.8896V31.0691Z" fill="#FF6B09"/>
</g>
<path d="M101 15V1H1V103H101V89" stroke="#FF6B09" stroke-width="2"/>
<defs>
<clipPath id="clip0_1_3429">
<rect width="48" height="47" fill="white" transform="translate(22 28)"/>
</clipPath>
</defs>
</svg>

<svg width="102" height="104" fill="none" xmlns="http://www.w3.org/2000/svg"><g clip-path="url(#a)" fill="#FF6B09"><path d="M66.32 27.812H43.193a2.733 2.733 0 0 0-2.73 2.73v9.573l-17.181 7.212a.559.559 0 0 0-.072.996l2.191 1.311V63.61a2.525 2.525 0 0 0-1.961 2.458v1.347c0 .31.25.56.56.56h3.923a.56.56 0 0 0 .56-.56v-1.347c0-1.198-.841-2.2-1.963-2.457V50.304l1.733 1.037c-.053.4-.007-.696-.025 6.506 0 2.368 6.064 3.636 12.235 3.709v10.906a2.727 2.727 0 0 0 2.729 2.726h23.127a2.73 2.73 0 0 0 2.727-2.728c0 .075-.003-2.31 0-41.917 0-1.485-1.228-2.731-2.726-2.731zM27.364 66.067v.788h-2.805v-.788c0-.775.628-1.406 1.399-1.406.775 0 1.406.631 1.406 1.406zm38.956 7.999H43.193c-.555 0-1.045-.28-1.335-.707a1.599 1.599 0 0 1-.275-.899v-3.78h26.341v3.782c0 .876-.73 1.604-1.604 1.604zm1.604-6.505H41.582v-6.002c3.013-.034 12.242-.698 12.242-3.712-.003-4.525.008-6.36-.014-6.515l5.024-3.01a.56.56 0 0 0-.071-.995l-17.181-7.212v-4.673h26.342v32.119zM41.022 54.132c-3.103 0-9.079.401-11.675 2.096.017-5.185-.18-4.847.459-5.287 1.612-1.187 6.225-2.016 11.216-2.016 2.178 0 11.683.598 11.683 2.61v4.694c-2.62-1.711-8.566-2.097-11.683-2.097zm.561-23.59a1.61 1.61 0 0 1 1.609-1.608h23.127c.888 0 1.605.732 1.605 1.608v3.781H41.583v-3.78zm-.56 10.552 16.288 6.837-4.036 2.415c-2.146-2.128-9.244-2.54-12.253-2.54-3.012 0-10.11.413-12.252 2.54l-4.037-2.415 16.29-6.837zM29.346 57.847c0-.906 4.01-2.596 11.675-2.596 7.67 0 11.683 1.69 11.683 2.596 0 .906-4.012 2.597-11.683 2.597-7.665 0-11.675-1.69-11.675-2.597z"/><path d="M54.755 69.523c-1.02 0-1.85.83-1.85 1.85 0 1.022.83 1.852 1.85 1.852s1.85-.83 1.85-1.851c0-1.02-.83-1.85-1.85-1.85zm0 2.583a.733.733 0 0 1 0-1.463.732.732 0 0 1 0 1.463zM56.89 31.07H52.62v1.118h4.269V31.07z"/></g><path d="M101 15V1H1v102h100V89" stroke="#FF6B09" stroke-width="2"/><defs><clipPath id="a"><path fill="#fff" transform="translate(22 28)" d="M0 0h48v47H0z"/></clipPath></defs></svg>
